!!!!SEGMENT: pl-kk--kk-i-6--064-006_lilius-franciszek--missa-pro-defunctis-domine-jesu-christe.krn
!!!cenid: 16xx:1065
!!!COM: Lilius, Franciszek
!!!COM-rismID: pe30020509
!!!CDT: ~1600-1657
!!!CNT: Polish
!!!OPR: Missa pro defunctis
!!!OTL: Domine Jesu Christe
!!!OMV: 006
!!!PDT:
!!!AGN:
!!!SMS-siglum: PL-Kk
!!!SMS-shelfmark: Kk.I.6
!!!SMS-shelfwork: 064-006 M
!!!SMS-variant:
!!!SMS-altvar:
!!!NIFC-rismSourceID: 1001135513
!!!NIFC-rismChildID: 1001136594
!!!NIFC-islandoraID: pl-kk:1634
!!!URL-pdf-islandora: https://repozytorium.nifc.pl/islandora/object/pl-kk%3A1634/datastream/PDF/view
!!!URL-scan: https://polish.musicsources.pl/pl/lokalizacje/galeria/rekopisy/6133 @EN{Scan on Polish Music Sources Website} @PL{Skany w portalu Dziedzictwo Muzyki Polskiej w otwartym dostępie}
!!!IIIF:
!!!ONB-nifc: UWAGA: C (skan 0088-0092), T (skan 0200-0206), B (skan 0313-0319) Części Mszy: 1. Requiem aeternam, 2. Kyrie, 3. Requiem aeternam, 4. Absolve Domine, 5. Dies irae, 6. Domine Jesu Christe, 7. Sanctus, 8. Agnus Dei, 9. Lux aeterna
!!!AIN: 1 empty 1 tenor 1 vox
!!!key:
**kern	**text	**kern	**text	**kern	**text
*part3	*part3	*part2	*part2	*part1	*part1
*staff3	*staff3	*staff2	*staff2	*staff1	*staff1
*Iempty	*	*Itenor	*	*Ivox	*
*I"[Basso]	*	*I"[Tenore]	*	*I"[Canto]	*
*I'[B]	*	*I'[T]	*	*I'[C]	*
*ICvox	*	*ICvox	*	*ICvox	*
*clefF4	*	*clefC4	*	*clefC4	*
*k[b-]	*	*k[b-]	*	*k[b-]	*
*F:	*	*F:	*	*F:	*
*M2/1	*	*M2/1	*	*M2/1	*
*lig	*	*lig	*	*	*
=1-	=1-	=1-	=1-	=1-	=1-
1GG/	Do-	1B-\	Do-	1G/	Do-
1.D\	.	1.A\	.	1F/	-mi-
*Xlig	*	*Xlig	*	*	*
=2-	=2-	=2-	=2-	=2-	=2-
*	*	*	*	*lig	*
.	.	.	.	1F/	-ne
!	!	!LO:N:acc=#	!	!	!
!	!	!LO:TX:t=P:problem=# above	!	!	!
2D/	-mi-	2Bn\	-mi-	.	.
1C/	-ne	1c\	-ne	1G/	.
*	*	*	*	*Xlig	*
=3-	=3-	=3-	=3-	=3-	=3-
!LO:TX:t=P:problem=# below	!	!	!	!	!
!LO:N:acc=#	!	!	!	!	!
2BBn/	Je-	2d\	Je-	1G/	Je-
2C/	-ſu	2c\	.	.	.
*	*	*	*	*lig	*
4GG/	Chri-	1B-\	-ſu	1G/	-ſu
4AA/	.	.	.	.	.
4BB-X/	.	.	.	.	.
4C/	.	.	.	.	.
=4-	=4-	=4-	=4-	=4-	=4-
1D\	.	2A\	Chri-	1F/	.
.	.	1d\	.	.	.
*	*	*	*	*Xlig	*
0E-X\	.	.	.	1G/	Chri-
.	.	4c\	.	.	.
.	.	4B-\	.	.	.
=5-	=5-	=5-	=5-	=5-	=5-
*	*	*	*	*lig	*
.	.	1c\	.	1G/	.
1D\	-ſte	0d\	-ſte	1A\	.
*	*	*	*	*Xlig	*
=6-	=6-	=6-	=6-	=6-	=6-
*	*	*	*	*lig	*
2r	.	.	.	1B-\	.
1BB-/	Rex	.	.	.	.
.	.	1r	.	1G/	.
2C/	.	.	.	.	.
*	*	*	*	*Xlig	*
=7-	=7-	=7-	=7-	=7-	=7-
*lig	*	*	*	*	*
1D\	glo-	2.A/	Rex	1F/	-ſte
.	.	4B-\	.	.	.
*col	*	*	*	*lig	*
2.C/	.	1c\	.	1A\	Rex
*Xlig	*	*	*	*	*
4C/	-ri-	.	.	.	.
*Xcol	*	*	*	*	*
=8-	=8-	=8-	=8-	=8-	=8-
*custos:FF	*	*	*	*	*
1BB-/	-ae	2.F/	glo-	1B-\	.
.	.	4G/	.	.	.
!LO:LB:g=original	!	!	!	!	!
*	*	*	*	*Xlig	*
!LO:TX:t=P:problem=brak nuty lub pauzy, żeby się zgadzało z resztą głosów	!	!	!	!	!
2ryy	.	2.A/	.	1c\	.
2.FF/	glo-	.	.	.	.
*	*	*custos:c	*	*	*
.	.	4B-\	.	.	.
!	!	!LO:LB:g=original	!	!	!
=9-	=9-	=9-	=9-	=9-	=9-
*	*	*	*	*lig	*
.	.	0c\	.	1A\	glo-
4GG/	.	.	.	.	.
4AA/	.	.	.	.	.
4BB-/	.	.	.	.	.
1C/	.	.	.	1G/	.
*	*	*	*	*Xlig	*
=10-	=10-	=10-	=10-	=10-	=10-
*	*	*	*	*lig	*
1BB-/	.	2.d\	-ri-	1B-\	.
.	.	4d\	-ae	.	.
*	*	*	*	*custos:B-	*
2.F\	.	4c\	.	1A\	.
.	.	4B-\	.	.	.
.	.	4A\	.	.	.
4Eny\	.	4G\	.	.	.
*	*	*	*	*Xlig	*
!	!	!	!	!LO:LB:g=original	!
=11-	=11-	=11-	=11-	=11-	=11-
*	*	*	*	*lig	*
2D/	.	2F/	.	1B-\	.
2BB-/	.	1F/	glo-	.	.
2.C/	.	.	.	1G/	.
.	.	2E/	-ri-	.	.
4C/	-ri-	.	.	.	.
*	*	*	*	*Xlig	*
=12-	=12-	=12-	=12-	=12-	=12-
1FF/	-ae	1F/	-ae	1F/	-ri-
0r	.	1.B-\	li-	1G/	-ae
=13-	=13-	=13-	=13-	=13-	=13-
.	.	.	.	1G/	li-
.	.	2B-\	-be-	.	.
0D\	li-	2A\	-ra	1F/	-be-
.	.	1A\	a-	.	.
=14-	=14-	=14-	=14-	=14-	=14-
*	*	*	*	*lig	*
.	.	.	.	1F/	-ra
!	!	!LO:TX:t=P:problem=# above	!	!	!
!	!	!LO:N:acc=#	!	!	!
.	.	2Bn\	-ni-	.	.
1C/	-be-	0c\	-mas	1G/	.
*	*	*	*	*Xlig	*
=15-	=15-	=15-	=15-	=15-	=15-
*	*	*	*	*lig	*
1C/	-ra	.	.	1G/	a-
2.F\	a-	1r	.	1A\	.
4F\	-ni-	.	.	.	.
*	*	*	*	*Xlig	*
=16-	=16-	=16-	=16-	=16-	=16-
2E-X\	-mas	2r	.	1G/	-ni-
1E-X\	o-	1B-\	om-	.	.
.	.	.	.	1G/	-mas
2E-X\	-mni-	2B-\	-ni-	.	.
=17-	=17-	=17-	=17-	=17-	=17-
2E-X\	-um	4B-\	-um	1G/	o-
.	.	4G\	.	.	.
*custos:GG	*	*	*	*	*
2C/	fi-	1c\	fi-	.	.
!LO:PB:g=original	!	!	!	!	!
1.GG/	-de-	.	.	1G/	-mni-
.	.	4B-\	-de-	.	.
.	.	4A\	.	.	.
=18-	=18-	=18-	=18-	=18-	=18-
!	!	!LO:N:acc=#	!	!	!
!	!	!LO:TX:t=P:problem=# above	!	!	!
.	.	2Bn\	.	1G/	-uf
!	!	!LO:N:acc=#	!	!	!
!	!	!LO:TX:t=P:problem=# above	!	!	!
2GG/	-li-	2Bn\	-li-	.	.
*	*	*custos:d	*	*	*
1C/	-um	1c\	-um	1G/	fi-
!	!	!LO:LB:g=original	!	!	!
=19-	=19-	=19-	=19-	=19-	=19-
*	*	*	*	*lig	*
1BB-/	de-	2.d\	de-	1B-\	-de-
.	.	4c\	.	.	.
1E-X\	-fun-	2B-\	-fun-	1G/	.
.	.	2G/	.	.	.
*	*	*	*	*Xlig	*
=20-	=20-	=20-	=20-	=20-	=20-
*	*	*lig	*	*lig	*
2.D/	-cto-	1F/	-cto-	1A\	.
4C/	.	.	.	.	.
4BB-/	.	1G/	.	1B-\	.
4AA/	.	.	.	.	.
2GG/	.	.	.	.	.
*	*	*Xlig	*	*Xlig	*
=21-	=21-	=21-	=21-	=21-	=21-
1FF/	.	1C/	-rum	1A\	.
*	*	*	*	*lig	*
1C/	-rum	1r	.	1G/	.
=22-	=22-	=22-	=22-	=22-	=22-
2.BB-/	o-	2.F/	o-	1B-\	.
4BB-/	-mni-	4F/	-mni-	.	.
*	*	*	*	*Xlig	*
2BB-/	-um	2B-\	-um	1F/	-li-
2BB-/	fi-	2B-\	fi-	.	.
=23-	=23-	=23-	=23-	=23-	=23-
*	*	*	*	*lig	*
2.FF/	-de-	2.A\	-de-	1F/	-um
4FF/	-li-	4A\	-li-	.	.
*	*	*	*	*custos:F	*
2BB-/	-um	2B-\	-um	1D/	.
2BB-/	de-	1d\	de-	.	.
*	*	*	*	*Xlig	*
!	!	!	!	!LO:LB:g=original	!
=24-	=24-	=24-	=24-	=24-	=24-
*	*	*	*	*lig	*
2D/	-fun-	.	.	1F/	de-
1F\	-cto-	2d\	-fun-	.	.
.	.	1c\	-cto-	1G/	.
2E\	.	.	.	.	.
*	*	*	*	*Xlig	*
!!pagebreak:original
=25-	=25-	=25-	=25-	=25-	=25-
1.D\	.	2F/	.	1B-\	.
.	.	1D/	.	.	.
.	.	.	.	1A\	-fun-
*custos:BB-	*	*	*	*	*
2C/	.	2E/	.	.	.
!LO:LB:g=original	!	!	!	!	!
=26-	=26-	=26-	=26-	=26-	=26-
*lig	*	*	*	*lig	*
1BB-/	.	2D/	.	1G/	-cto-
.	.	1G/	.	.	.
1AA/	.	.	.	1A\	.
!	!	!LO:TX:t=P:problem=# below	!	!	!
.	.	2F#X/	.	.	.
*Xlig	*	*	*	*Xlig	*
=27-	=27-	=27-	=27-	=27-	=27-
*	*	*	*	*lig	*
0GG/	-rum	1G/	.	1B-\	.
.	.	1B-\	-rum	1G/	.
*	*	*	*	*Xlig	*
=28-	=28-	=28-	=28-	=28-	=28-
1r	.	1B-\	de	1G/	-rum
1C/	de	1.c\	poe-	1G/	de
=29-	=29-	=29-	=29-	=29-	=29-
*	*	*	*	*lig	*
1D\	poe-	.	.	1F/	poe-
*	*	*custos:c	*	*	*
!	!	!LO:N:acc=#	!	!	!
!	!	!LO:TX:t=P:problem=# above	!	!	!
.	.	2Bn\	-nis	.	.
!	!	!LO:LB:g=original	!	!	!
1.C/	.	2c\	in-	1G/	.
.	.	2G/	-fer-	.	.
*	*	*	*	*Xlig	*
=30-	=30-	=30-	=30-	=30-	=30-
.	.	1D/	.	1G/	-nis
!LO:TX:t=P:problem=# below	!	!	!	!	!
!LO:N:acc=#	!	!	!	!	!
2BBn/	-nis	.	.	.	.
1C/	in-	1E/	.	1G/	in-
=31-	=31-	=31-	=31-	=31-	=31-
*	*	*	*	*lig	*
1GG/	-fer-	2D/	-ni	1G/	-fer-
.	.	2D/	in-	.	.
2FF/	-ni	4Fny/	-fer-	1A\	.
.	.	4G/	.	.	.
*	*ij	*	*	*	*
2F\	de	4A/	.	.	.
.	.	4F/	.	.	.
*	*	*	*	*Xlig	*
=32-	=32-	=32-	=32-	=32-	=32-
*	*	*	*	*lig	*
2E-X\	poe-	2.G/	.	1B-\	.
1E-X\	-nis	.	.	.	.
.	.	4A/	.	.	.
.	.	2B-\	.	1G/	.
2E-X\	in-	2.c\	.	.	.
*	*	*	*	*Xlig	*
!!linebreak:original
=33-	=33-	=33-	=33-	=33-	=33-
*	*	*	*	*lig	*
1F\	-fer-	.	.	1A\	.
.	.	4B-\	.	.	.
.	.	2A/	.	.	.
1BB-/	.	2G/	.	1B-\	.
.	.	1F/	.	.	.
*	*	*	*	*Xlig	*
=34-	=34-	=34-	=34-	=34-	=34-
1.C/	ni	.	.	1G/	-ni
*	*Xij	*	*	*	*
.	.	4E/	.	.	.
.	.	4D/	.	.	.
*	*	*	*	*lig	*
.	.	1E/	.	1G/	et
2C/	et	.	.	.	.
=35-	=35-	=35-	=35-	=35-	=35-
1FF/	de-	2F/	-ni	1F/	.
.	.	4r	.	.	.
.	.	4F/	et	.	.
*	*	*	*	*Xlig	*
2GG/	-pro-	2BB-/	de-	1B-\	.
1BB-/	-fun-	1D/	-pro-	.	.
=36-	=36-	=36-	=36-	=36-	=36-
.	.	.	.	1F/	de
2AA/	-do	1F/	-fun-	.	.
*	*	*	*	*custos:B-	*
0GG/	la-	.	.	1G/	pro-
.	.	2E/	.	.	.
!	!	!	!	!LO:LB:g=original	!
=37-	=37-	=37-	=37-	=37-	=37-
*	*	*	*	*lig	*
.	.	2.D/	-do	1B-\	-fun-
*	*	*custos:F	*	*	*
.	.	4E/	la-	.	.
*custos:EE-	*	*	*	*	*
!	!	!LO:PB:g=original	!	!	!
1FF/	.	2F/	.	1A\	.
.	.	1D/	.	.	.
*	*	*	*	*Xlig	*
!LO:LB:g=original	!	!	!	!	!
=38-	=38-	=38-	=38-	=38-	=38-
1EE-X/	.	.	.	1G/	-do
.	.	2C/	.	.	.
*	*	*	*	*lig	*
1DD/	-cu	0D/	-cu	1A\	la-
=39-	=39-	=39-	=39-	=39-	=39-
1D\	li-	.	.	1F/	.
*	*	*	*	*Xlig	*
1BB-/	-be-	2r	.	1G/	.
.	.	2d\	li-	.	.
=40-	=40-	=40-	=40-	=40-	=40-
1C/	-ra	1c\	-be-	1G/	-cu
2.F\	e-	1c\	-ra	1A\	li-
4Eny\	.	.	.	.	.
=41-	=41-	=41-	=41-	=41-	=41-
1D\	.	2d\	e-	1F/	-be-
.	.	1f\	-as	.	.
2C/	-as	.	.	1G/	-ra
2C/	de	2e\	.	.	.
!!linebreak:original
=42-	=42-	=42-	=42-	=42-	=42-
2D/	o-	2d\	de	1B-\	e-
2BB-/	-re-	2d\	o-	.	.
1F\	-le-	2c\	-re	1A\	-as
.	.	2d\	.	.	.
=43-	=43-	=43-	=43-	=43-	=43-
1E-X\	.	2.e-X\	le-	1G/	de
.	.	4d\	-o-	.	.
1F\	.	1c\	.	1A\	o-
=44-	=44-	=44-	=44-	=44-	=44-
0C/	-o-	2.c\	.	1G/	-re
.	.	8B-\L	.	.	.
.	.	8A\J	.	.	.
.	.	1G/	.	1c\	le-
=45-	=45-	=45-	=45-	=45-	=45-
*	*	*	*	*lig	*
2FF/	-nis	2A/	-nis	1c\	-o-
2FF/	de	2A/	de	.	.
1GG/	o-	2.G/	o-	1B-\	.
*	*	*custos:E	*	*	*
.	.	4F/	-re	.	.
!	!	!LO:LB:g=original	!	!	!
*	*	*	*	*Xlig	*
=46-	=46-	=46-	=46-	=46-	=46-
*	*	*	*	*lig	*
2AA/	-re	2E/	le-	1A\	.
2FF/	le-	1F/	-o-	.	.
1C/	-o-	.	.	1G/	.
.	.	2E/	.	.	.
*	*	*	*	*Xlig	*
=47-	=47-	=47-	=47-	=47-	=47-
*lig	*	*	*	*	*
1D\	.	2A/	.	1F/	.
.	.	2F/	.	.	.
*	*	*	*	*lig	*
1C/	.	1E/	.	1G/	.
*Xlig	*	*	*	*	*
=48-	=48-	=48-	=48-	=48-	=48-
0BB-/	-nis	1F/	.	1B-\	.
*	*	*	*	*Xlig	*
*	*	*	*	*custos:B-	*
.	.	1F/	-nis	1B-\	-nis
!LO:LB:g=original	!	!	!	!LO:PB:g=original	!
=49-	=49-	=49-	=49-	=49-	=49-
2r	.	2r	.	1B-\	ne
1E-X\	ne	1G/	ne	.	.
.	.	.	.	1B-\	ab-
2D/	ab-	2F/	ab-	.	.
=50-	=50-	=50-	=50-	=50-	=50-
1.E-X\	-ſor-	1.G/	-ſor-	1B-\	-ſor-
.	.	.	.	1B-\	-be-
2E-\	-be-	2G/	-be-	.	.
=51-	=51-	=51-	=51-	=51-	=51-
1BB-/	-at	1F/	-at	1B-\	-at
1F\	e-	1F/	e-	1A\	e-
!!linebreak:original
=52-	=52-	=52-	=52-	=52-	=52-
1C/	-as	1E/	-as	1G/	-as
*	*	*	*	*lig	*
4FF/	tar-	1F/	Tar-	1A\	Tar-
4GG/	.	.	.	.	.
4AA/	.	.	.	.	.
4BB-/	.	.	.	.	.
=53-	=53-	=53-	=53-	=53-	=53-
1C/	.	2C/	.	1G/	.
.	.	1c\	.	.	.
*	*	*	*	*Xlig	*
1.D\	.	.	.	1F/	-ta-
.	.	4B-\	.	.	.
.	.	4A\	.	.	.
=54-	=54-	=54-	=54-	=54-	=54-
!	!	!LO:N:acc=#	!	!	!
!	!	!LO:TX:t=P:problem=# above	!	!	!
*	*	*	*	*lig	*
.	.	2Bn\	.	1F/	-rus
!	!	!LO:N:acc=#	!	!	!
!	!	!LO:TX:t=P:problem=# above	!	!	!
2D/	-ta-	2Bn\	-ta-	.	.
2C/	-rus	1c\	-rus	1G/	.
2C/	ne	.	.	.	.
*	*	*	*	*Xlig	*
=55-	=55-	=55-	=55-	=55-	=55-
2BB-/	ca-	2r	.	1G/	ne
2.GG/	.	2d\	ne	.	.
*	*	*	*	*lig	*
.	.	1B-\	ca-	1G/	ca-
4AA/	.	.	.	.	.
4BB-/	.	.	.	.	.
4C/	.	.	.	.	.
=56-	=56-	=56-	=56-	=56-	=56-
2.D/	.	0A\	-dant	1F/	.
4Eny\	.	.	.	.	.
*	*	*	*	*Xlig	*
*	*	*	*	*lig	*
2F\	.	.	.	1F/	-dant
2FF/	.	.	.	.	.
!	!	!LO:LB:g=original	!	!	!
=57-	=57-	=57-	=57-	=57-	=57-
1BB-/	.	2r	.	1D/	.
.	.	2d\	ne	.	.
*	*	*	*	*Xlig	*
1FF/	-dant	2c\	ca-	1F/	in
.	.	2A/	.	.	.
!LO:LB:g=original	!	!	!	!	!
=58-	=58-	=58-	=58-	=58-	=58-
*	*	*	*	*lig	*
1r	.	1B-\	-dant	1G/	ob-
2r	.	1G/	in	1B-\	.
2G\	ne	.	.	.	.
*	*	*	*	*Xlig	*
=59-	=59-	=59-	=59-	=59-	=59-
*	*	*	*	*lig	*
2F\	ca-	2c\	ob-	1A\	-ſcu-
2D/	-dant	1d\	-ſcu-	.	.
1E-X\	in	.	.	1G/	.
.	.	2c\	.	.	.
*	*	*	*	*Xlig	*
!!pagebreak:original
=60-	=60-	=60-	=60-	=60-	=60-
*	*	*	*	*lig	*
1D\	ob-	1d\	-rum	1A\	.
2.G\	.	2r	.	1B-\	.
.	.	1G/	in	.	.
4F\	.	.	.	.	.
*	*	*	*	*Xlig	*
=61-	=61-	=61-	=61-	=61-	=61-
*	*	*	*	*custos:G	*
2E-X\	.	.	.	1G/	.
2C/	.	2E-X/	ob-	.	.
1GG/	-ſcu-	1D/	-ſcu-	1G/	-rum
!	!	!	!	!LO:LB:g=original	!
=62-	=62-	=62-	=62-	=62-	=62-
!	!	!LO:TX:t=P:problem=# above	!	!	!
!	!	!LO:N:acc=#	!	!	!
*	*	*	*	*lig	*
1C/	-rum	1E#X/	.	1G/	ſed
1r	.	1F/	-rum	1A\	.
*	*	*	*	*Xlig	*
=63-	=63-	=63-	=63-	=63-	=63-
*	*	*	*	*lig	*
1GG/	ſed	1r	.	1B-\	.
2.AA/	ſi-	2r	.	1c\	.
.	.	1C/	ſed	.	.
4BB-/	.	.	.	.	.
*	*	*	*	*Xlig	*
=64-	=64-	=64-	=64-	=64-	=64-
1.C/	.	.	.	1c\	ſi-
.	.	2.E/	ſi-	.	.
.	.	.	.	1G/	-gni-
.	.	4F/	.	.	.
2C/	-gni-	2G/	.	.	.
=65-	=65-	=65-	=65-	=65-	=65-
*	*	*	*	*lig	*
1F\	-fer	2.F/	-gni-	1A\	-fer
.	.	4E/	.	.	.
2.BB-/	ſan-	1.D/	-fer	1B-\	.
4C/	.	.	.	.	.
*	*	*	*	*Xlig	*
=66-	=66-	=66-	=66-	=66-	=66-
1D\	.	.	.	1A\	ſan-
.	.	1d\	ſan-	.	.
1E-X\	-ctus	.	.	1G/	-ctus
.	.	2c\	-ctus	.	.
=67-	=67-	=67-	=67-	=67-	=67-
*	*	*	*	*lig	*
2.D/	Mi-	2.d\	Mi-	1A\	Mi-
4D/	-cha-	4d\	-cha-	.	.
*custos:C	*	*custos:c	*	*	*
1GG/	-el	1d\	-el	1B-\	.
*	*	*	*	*Xlig	*
!LO:LB:g=original	!	!LO:LB:g=original	!	!	!
=68-	=68-	=68-	=68-	=68-	=68-
2.C/	re-	2.c\	Mi-	1G/	.
4C/	-prae-	4B-\	.	.	.
*	*	*	*	*lig	*
2D/	-ſen-	4A/	.	1F/	-cha-
.	.	4G/	.	.	.
2D/	-tet	2F/	.	.	.
=69-	=69-	=69-	=69-	=69-	=69-
1Eny\	e-	2.C/	.	1G/	.
.	.	4C/	-cha-	.	.
*	*	*	*	*Xlig	*
1.C/	.	1G/	-el	1G/	-el
=70-	=70-	=70-	=70-	=70-	=70-
.	.	1r	.	1G/	re-
!LO:TX:t=P:problem=# above	!	!	!	!	!
!LO:N:acc=#	!	!	!	!	!
2BBn/	.	.	.	.	.
1C/	-as	2r	.	1G/	-prae-
.	.	2.c\	re-	.	.
=71-	=71-	=71-	=71-	=71-	=71-
2.F\	re-	.	.	1A\	-ſen-
.	.	4c\	-prae-	.	.
.	.	1d\	-ſen-	.	.
4F\	-prae	.	.	.	.
2G\	-ſen-	.	.	1B-\	-tet
2G\	-tet	1eny\	-tet	.	.
=72-	=72-	=72-	=72-	=72-	=72-
*	*	*	*	*lig	*
1A\	e-	.	.	1c\	e-
.	.	1f\	e-	.	.
2B-\	.	.	.	1B-\	.
2G\	.	2e\	.	.	.
*	*	*	*	*Xlig	*
=73-	=73-	=73-	=73-	=73-	=73-
*	*	*	*	*lig	*
1.F\	.	1f\	.	1A\	.
.	.	2d\	.	1G/	.
2E\	.	1c\	.	.	.
*	*	*	*	*Xlig	*
=74-	=74-	=74-	=74-	=74-	=74-
*	*	*	*	*lig	*
1D\	.	.	.	1F/	.
!	!	!LO:N:acc=#	!	!	!
.	.	2Bn\	.	.	.
*	*	*	*	*custos:B-	*
1C/	-as	2c\	-as	1G/	.
.	.	2C/	re-	.	.
*	*	*	*	*Xlig	*
!!linebreak:original
!	!	!	!	!LO:LB:g=original	!
=75-	=75-	=75-	=75-	=75-	=75-
*	*ij	*	*	*	*
2.BB-/	re-	2.D/	.	1B-\	.
4C/	-prae-	4E/	-prae-	.	.
2D/	-ſen-	2F/	-ſen-	1B-\	-as
2D/	-tet	2F/	-tet	.	.
=76-	=76-	=76-	=76-	=76-	=76-
2E-X\	e-	1G/	e-	1B-\	in
4BB-/	.	.	.	.	.
4C/	.	.	.	.	.
*	*	*	*	*lig	*
4D\	.	4F/	.	1A\	lu-
4E-\	.	4G/	.	.	.
*custos:C	*	*	*	*	*
2F\	-as	4A/	.	.	.
*	*	*custos:c	*	*	*
.	.	4B-y/	.	.	.
!LO:LB:g=original	!	!LO:LB:g=original	!	!	!
=77-	=77-	=77-	=77-	=77-	=77-
1C/	re-	1.c\	-as	1G/	.
*	*	*	*	*Xlig	*
*	*	*	*	*lig	*
1F\	-prae-	.	.	1A\	.
.	.	2c\	in	.	.
=78-	=78-	=78-	=78-	=78-	=78-
2.BB-/	-ſen-	1d\	lu-	1B-\	.
4BB-/	-tet	.	.	.	.
*	*	*	*	*Xlig	*
*	*	*	*	*lig	*
2C/	e-	1c\	-cem	1A\	-cem
2D/	.	.	.	.	.
=79-	=79-	=79-	=79-	=79-	=79-
1E-X\	.	2B-\	ſan-	1G/	.
.	.	4A\	.	.	.
.	.	4G\	.	.	.
*	*	*	*	*Xlig	*
*	*	*	*	*lig	*
1D\	-as	1A\	.	1F/	ſan-
*	*Xij	*	*	*	*
=80-	=80-	=80-	=80-	=80-	=80-
1G\	in	1B-\	.	1G/	.
*	*	*	*	*Xlig	*
*	*	*	*	*lig	*
2F\	lu-	2c\	.	1A\	.
2F\	-cem	2.A/	.	.	.
=81-	=81-	=81-	=81-	=81-	=81-
2.BB-/	ſan-	.	.	1B-\	.
.	.	4G/	.	.	.
.	.	1G/	.	.	.
4C/	.	.	.	.	.
*	*	*	*	*Xlig	*
1D\	.	.	.	1A\	.
!	!	!LO:TX:t=P:problem=# below	!	!	!
.	.	2F#X/	.	.	.
!!linebreak:original
=82-	=82-	=82-	=82-	=82-	=82-
1GG/	-ctam	1G/	-ctam	0.G/	.
2r	.	2r	.	.	.
*	*ij	*	*	*	*
2GG/	ſan-	2d\	in	.	.
=83-	=83-	=83-	=83-	=83-	=83-
2C/	.	2e-X\	lu-	.	.
!LO:N:acc=#	!	!	!	!	!
2BBn/	.	2d\	-cem	.	.
1C/	.	1c\	ſan-	0.G/	-ctam
=84-	=84-	=84-	=84-	=84-	=84-
!	!	!LO:TX:t=P:problem=# below	!	!	!
!	!	!LO:N:acc=#	!	!	!
0GG/;	-ctam	0Bn\;	-ctam	.	.
*	*Xij	*	*	*	*
!LO:LB:g=original	!	!LO:LB:g=original	!	!LO:LB:g=original	!
=85||-	=85||-	=85||-	=85||-	=85||-	=85||-
00r	.	2r	.	1G/	Quam
.	.	2d\	Quam	.	.
*	*	*	*	*lig	*
.	.	1B-y\	o-	1G/	o-
=86-	=86-	=86-	=86-	=86-	=86-
.	.	0A\	-lim	1F/	.
*	*	*	*	*Xlig	*
*	*	*	*	*lig	*
.	.	.	.	1F/	-lim
=87-	=87-	=87-	=87-	=87-	=87-
0r	.	2d\	quam	1D/	.
.	.	2d\	o-	.	.
*	*	*	*	*Xlig	*
.	.	2c\	-lim	1F/	A-
.	.	2A\	A-	.	.
=88-	=88-	=88-	=88-	=88-	=88-
2r	.	2.B-\	-bra-	1G/	-bra-
2G\	Quam	.	.	.	.
.	.	4c\	-hae	.	.
*	*	*	*	*lig	*
1G\	o-	2d\	pro-	1B-\	-hae
.	.	2eny\	-mi-	.	.
=89-	=89-	=89-	=89-	=89-	=89-
2F\	.	1f\	-ſi-	1A\	.
2D\	-lim	.	.	.	.
*	*	*	*	*Xlig	*
2.E\	A-	1e\	-ſti	1G/	pro-
4F\	.	.	.	.	.
!!pagebreak:original
=90-	=90-	=90-	=90-	=90-	=90-
1G\	-bra-	2r	.	1B-\	.
.	.	2d\	quam	.	.
1D\	-hae	1d\	o-	1A\	-mi-
=91-	=91-	=91-	=91-	=91-	=91-
*	*	*	*	*lig	*
2r	.	2B-\	-lim	1G/	-ſi-
2C/	quam	2G/	A-	.	.
1C/	o-	2c\	-bra-	1A\	.
.	.	2A/	-hae	.	.
*	*	*	*	*Xlig	*
=92-	=92-	=92-	=92-	=92-	=92-
*	*	*	*	*lig	*
2BB-/	.	1.B-\	pro-	1G/	-ſti
2GG/	-lim	.	.	.	.
2.BB-/	A-	.	.	1F/	.
.	.	2F/	-mi-	.	.
4AA/	.	.	.	.	.
*	*	*	*	*Xlig	*
=93-	=93-	=93-	=93-	=93-	=93-
1GG/	-bra-	1G/	-ſi-	1B-\	et
*	*	*	*	*lig	*
1FF/	-hae	1c\	-ſti	1A\	ſe-
=94-	=94-	=94-	=94-	=94-	=94-
1C/	pro-	1.c\	pro-	1G/	.
*	*	*	*	*Xlig	*
*	*	*	*	*lig	*
1F\	-mi-	.	.	1A\	.
*	*	*custos:e-	*	*	*
.	.	2d\	.	.	.
!	!	!LO:LB:g=original	!	!	!
=95-	=95-	=95-	=95-	=95-	=95-
2.E-X\	-ſi-	1.e-X\	.	1B-\	.
4D\	.	.	.	.	.
*	*	*	*	*Xlig	*
*	*	*	*	*lig	*
4C\	.	.	.	1c\	.
4D\	.	.	.	.	.
4E-X\	.	2c\	.	.	.
*custos:G	*	*	*	*	*
4F\	.	.	.	.	.
!LO:PB:g=original	!	!	!	!	!
=96-	=96-	=96-	=96-	=96-	=96-
*	*	*	*	*custos:A	*
2G\	.	2G/	.	1B-\	.
2GG/	.	2.G/	-mi-	.	.
*	*	*	*	*Xlig	*
!	!	!	!	!LO:LB:g=original	!
*	*	*	*	*lig	*
2.AA/	.	.	.	1A\	.
.	.	4F/	.	.	.
.	.	1F/	-ſi-	.	.
4BB-/	.	.	.	.	.
=97-	=97-	=97-	=97-	=97-	=97-
1C/	.	.	.	1G/	.
.	.	2E/	.	.	.
*	*	*	*	*Xlig	*
*	*	*	*	*lig	*
2FF/	-ſti	1F/	-ſti	1F/	.
2F\	et	.	.	.	.
!!linebreak:original
=98-	=98-	=98-	=98-	=98-	=98-
2.E\	ſe-	1r	.	1G/	.
4E\	-mi-	.	.	.	.
*	*	*	*	*Xlig	*
*	*	*	*	*lig	*
1D\	-ni	2r	.	1B-\	.
.	.	2d\	et	.	.
=99-	=99-	=99-	=99-	=99-	=99-
*lig	*	*	*	*	*
1F\	e-	2.c\	ſe-	1A\	.
.	.	4c\	-mi-	.	.
*	*	*	*	*Xlig	*
*	*	*	*	*lig	*
1G\	.	2B-\	-ni	1B-\	.
.	.	1B-\	e-	.	.
*Xlig	*	*	*	*	*
=100-	=100-	=100-	=100-	=100-	=100-
1F\	.	.	.	1c\	.
.	.	2A/	.	.	.
*	*	*	*	*Xlig	*
*	*	*	*	*lig	*
1BB-/	-ius	2B-\	.	1B-\	.
.	.	2d\	.	.	.
=101-	=101-	=101-	=101-	=101-	=101-
2r	.	2c\	.	1A\	.
2F\	et	1d\	.	.	.
*	*	*	*	*Xlig	*
*	*	*	*	*lig	*
2.E\	ſe-	.	.	1G/	.
!	!	!LO:TX:t=P:problem=# below	!	!	!
.	.	2c#X\	-ius	.	.
4E\	-mi-	.	.	.	.
=102-	=102-	=102-	=102-	=102-	=102-
*	*	*	*ij	*	*
1D\	-ni	2d\	et	1B-\	.
.	.	1f\	ſe-	.	.
*	*	*	*	*Xlig	*
*	*	*	*	*lig	*
1F\	e-	.	.	1A\	.
.	.	1c\	-mi-	.	.
=103-	=103-	=103-	=103-	=103-	=103-
2C/	ius	.	.	1G/	.
*	*ij	*	*	*	*
2C/	et	2c\	-ni	.	.
*	*	*	*	*Xlig	*
2.BB-/	ſe-	2F/	e-	1B-\	.
.	.	2G/	.	.	.
4BB-/	-mi-	.	.	.	.
=104-	=104-	=104-	=104-	=104-	=104-
1AA/	-ni	4A\	.	1F/	-mi-
.	.	4B-\	.	.	.
.	.	2c\	-ius	.	.
!	!	!LO:LB:g=original	!	!	!
*	*	*	*	*lig	*
2BB-/	e-	2r	.	1F/	-ni
2FF/	.	2c\	et	.	.
=105-	=105-	=105-	=105-	=105-	=105-
*custos:FF	*	*	*	*	*
1GG/	-ius	2.B-\	ſe-	1D/	.
.	.	4B-\	-mi-	.	.
*	*	*	*	*Xlig	*
!LO:LB:g=original	!	!	!	!	!
*	*	*	*	*lig	*
2.FF/	et	2A\	-ni	1F/	e-
.	.	1d\	e-	.	.
4F\	.	.	.	.	.
!!linebreak:original
=106-	=106-	=106-	=106-	=106-	=106-
2.E\	ſe-	.	.	1G/	.
.	.	2c#X\	.	.	.
4E\	-mi-	.	.	.	.
!	!	!LO:TX:t=P:problem=# above	!	!	!
*	*	*	*	*Xlig	*
*	*	*	*	*lig	*
1D\	-ni	0.d\	.	1A\	.
=107-	=107-	=107-	=107-	=107-	=107-
2.BB-/	e-	.	.	1B-\	.
4C/	.	.	.	.	.
*	*	*	*	*Xlig	*
1D\	.	.	.	1A\	.
=108-	=108-	=108-	=108-	=108-	=108-
!	!	!LO:N:acc=#	!	!	!
!	!	!LO:TX:t=P:problem=# above	!	!	!
0GG/;	-ius	0Bn\;<	-ius	0G/;	-ius
*	*Xij	*	*Xij	*	*
!	!	!LO:LB:g=original	!	!LO:LB:g=original	!
=109||-	=109||-	=109||-	=109||-	=109||-	=109||-
*lig	*	*	*	*	*
1D\	Ho-	1A\	Ho-	1F/	Ho-
*col	*	*	*	*	*
2.C/	.	2.cny\	.	1G/	-ſti-
*Xlig	*	*	*	*	*
4C/	-ſti-	4c\	-ſti-	.	.
*Xcol	*	*	*	*	*
=110-	=110-	=110-	=110-	=110-	=110-
*	*	*	*	*lig	*
1BB-/	-as	2F/	-as	1B-\	-as
.	.	1F/	et	.	.
2FF/	et	.	.	1A\	.
2C/	.	2E/	pre-	.	.
*	*	*	*	*Xlig	*
=111-	=111-	=111-	=111-	=111-	=111-
2D/	pre-	4F/	-ces	1F/	et
.	.	4G/	.	.	.
1F\	.	4A\	.	.	.
.	.	4B-\	.	.	.
*	*	*	*	*lig	*
.	.	1c\	ti-	1G/	pre-
2E\	-ces	.	.	.	.
=112-	=112-	=112-	=112-	=112-	=112-
1D\	ti-	1F/	-bi	1B-\	.
*	*	*	*	*Xlig	*
*	*	*	*	*lig	*
1G\	.	2r	.	1B-\	-ces
.	.	2G/	et	.	.
=113-	=113-	=113-	=113-	=113-	=113-
2.F\	.	2A/	pre-	1A\	.
.	.	1c\	.	.	.
4E\	.	.	.	.	.
*custos:D	*	*	*	*	*
!LO:LB:g=original	!	!	!	!	!
*	*	*	*	*Xlig	*
1D\	.	.	.	1F/	ti-
!	!	!LO:N:acc=#	!	!	!
.	.	2Bn\	-ces	.	.
=114-	=114-	=114-	=114-	=114-	=114-
1C/	-bi	2c\	ti-	1G/	-bi
.	.	2c\	-bi	.	.
1BB-/	Do-	1.F/	Do-	1B-\	Do-
!!linebreak:original
=115-	=115-	=115-	=115-	=115-	=115-
2.FF/	.	.	.	1A\	-mi-
.	.	2F/	-mi-	.	.
4FF/	-mi-	.	.	.	.
1C/	-ne	1E/	-ne	1G/	-ne
=116-	=116-	=116-	=116-	=116-	=116-
1F\	lau-	2F/	lau-	1A\	lau-
.	.	1c\	.	.	.
1C/	-dis	.	.	1G/	-dis
*	*	*custos:c	*	*	*
.	.	2c\	-dis	.	.
!	!	!LO:LB:g=original	!	!	!
=117-	=117-	=117-	=117-	=117-	=117-
*	*	*	*	*lig	*
1F\	of-	1c\	of-	1A\	of-
2.BB-/	-fe-	2.f\	-fe-	1B-\	.
4C/	.	4eny\	.	.	.
*	*	*	*	*Xlig	*
=118-	=118-	=118-	=118-	=118-	=118-
*	*	*	*	*lig	*
1D\	.	2.d\	.	1A\	.
.	.	4c\	.	.	.
*	*	*	*	*custos:F	*
1E-X\	.	4B-y\	.	1G/	.
.	.	4A\	.	.	.
.	.	2G/	.	.	.
*	*	*	*	*Xlig	*
!	!	!	!	!LO:LB:g=original	!
=119-	=119-	=119-	=119-	=119-	=119-
*	*	*	*	*lig	*
2.D/	.	2A/	.	1F/	-fe-
.	.	2.d\	.	.	.
4C/	.	.	.	.	.
!LO:N:acc=#	!	!	!	!	!
2BBn/	.	.	.	1G/	.
.	.	4c\	.	.	.
2C/	.	1c\	.	.	.
*	*	*	*	*Xlig	*
=120-	=120-	=120-	=120-	=120-	=120-
2.GG/	.	.	.	1G/	-ri-
!	!	!LO:TX:t=P:problem=# above	!	!	!
!	!	!LO:N:acc=#	!	!	!
.	.	2Bn\	-ri-	.	.
4GG/	-ri-	.	.	.	.
2C/	-mus	0c\	-mus	1G/	-mus
2.C/	tu	.	.	.	.
=121-	=121-	=121-	=121-	=121-	=121-
*	*	*	*	*lig	*
.	.	.	.	1G/	tu
4D/	.	.	.	.	.
2Eny\	.	.	.	.	.
1F\	.	1r	.	1A\	.
*	*	*	*	*Xlig	*
=122-	=122-	=122-	=122-	=122-	=122-
*	*	*lig	*	*lig	*
2.G\	ſu-	1G/	tu	1B-\	.
4G\	-ſci-	.	.	.	.
*custos:BB-	*	*	*	*	*
1F\	-pe	1A\	.	1c\	.
*	*	*Xlig	*	*Xlig	*
!LO:LB:g=original	!	!	!	!	!
=123-	=123-	=123-	=123-	=123-	=123-
*	*ij	*lig	*	*lig	*
2BB-/	tu	1B-\	-ſu-	1d\	.
1B-\	ſu-	.	.	.	.
.	.	1c\	.	1c\	.
2A\	.	.	.	.	.
*	*	*Xlig	*	*Xlig	*
=124-	=124-	=124-	=124-	=124-	=124-
1G\	.	2d\	.	1B-\	ſu-
.	.	2e\	-ſci-	.	.
1F\	.	2f\	-pe	1A\	-ſci-
.	.	2F/	/tu	.	.
=125-	=125-	=125-	=125-	=125-	=125-
*	*	*	*	*lig	*
2.C/	.	2F/	tu	1G/	-pe
.	.	2E/	ſu-	.	.
4BB-/	.	.	.	.	.
4AA/	.	4F/	.	1A\	.
4GG/	.	4G/	.	.	.
2FF/	-ſci-	4A/	.	.	.
.	.	4B-\	.	.	.
*	*	*	*	*Xlig	*
=126-	=126-	=126-	=126-	=126-	=126-
1C/	-pe	2c\	.	1G/	pro
*	*Xij	*	*	*	*
*	*	*custos:c	*	*	*
.	.	2c\	.	.	.
!	!	!LO:LB:g=original	!	!	!
2r	.	2.c\	.	1G/	a-
2C/	pro	.	.	.	.
.	.	4B-\	.	.	.
=127-	=127-	=127-	=127-	=127-	=127-
2D/	a-	4A\	.	1F/	-ni-
.	.	4G\	.	.	.
1F\	.	4A\	.	.	.
.	.	4B-\	.	.	.
*	*	*	*	*lig	*
.	.	1c\	-ſci-	1G/	-ma-
2E\	-ni-	.	.	.	.
=128-	=128-	=128-	=128-	=128-	=128-
2D/	-ma-	1F/	-pe	1B-\	.
2BB-/	-bus	.	.	.	.
*	*	*	*	*Xlig	*
*	*	*	*	*lig	*
2D/	il-	2r	.	1A\	-bus
2C/	.	2c\	pro	.	.
=129-	=129-	=129-	=129-	=129-	=129-
*lig	*	*	*	*	*
1BB-/	.	2d\	a-	1B-\	.
.	.	1f\	.	.	.
*	*	*	*	*Xlig	*
1FF/	.	.	.	1A\	il-
.	.	2f\	-ni-	.	.
*Xlig	*	*	*	*	*
=130-	=130-	=130-	=130-	=130-	=130-
4C\	.	2e\	-ma-	1G/	.
4D\	.	.	.	.	.
4E\	.	2e\	-bus	.	.
4F\	.	.	.	.	.
1G\	.	1d\	il-	1G/	-lis
!!linebreak:original
=131-	=131-	=131-	=131-	=131-	=131-
*	*	*	*	*lig	*
1C/	-lis	1e\	-lis	1c\	qua-
*	*	*	*	*custos:c	*
2r	.	2.d\	qua-	1B-\	.
2G\	qua-	.	.	.	.
.	.	4e\	.	.	.
*	*	*	*	*Xlig	*
!	!	!	!	!LO:LB:g=original	!
=132-	=132-	=132-	=132-	=132-	=132-
*custos:D	*	*	*	*	*
*	*	*	*	*lig	*
1F\	-rum	2f\	.	1c\	-rum
.	.	2c\	-rum	.	.
!LO:LB:g=original	!	!	!	!	!
4D\	ho-	4F/	ho-	1d\	.
4E\	.	4G/	.	.	.
4F\	.	2.A/	.	.	.
4G\	.	.	.	.	.
*	*	*	*	*Xlig	*
=133-	=133-	=133-	=133-	=133-	=133-
1A\	.	.	.	1c\	.
.	.	4B-\	.	.	.
.	.	4c\	.	.	.
.	.	4A\	.	.	.
*	*	*	*	*lig	*
2.G\	.	2d\	.	1B-\	ho-
.	.	2B-\	-di-	.	.
4G\	-di-	.	.	.	.
=134-	=134-	=134-	=134-	=134-	=134-
*	*	*custos:d	*	*	*
1F\	-e	1c\	-e	1A\	.
!	!	!LO:LB:g=original	!	!	!
*lig	*	*lig	*	*Xlig	*
1BB-/	ho-	1d\	ho-	1B-\	.
=135-	=135-	=135-	=135-	=135-	=135-
1.C/	.	1.c\	.	1G/	-di-
.	.	.	.	1G/	-e
*	*	*	*	*lig	*
*Xlig	*	*Xlig	*	*	*
2C/	-di-	2c\	-di-	.	.
=136-	=136-	=136-	=136-	=136-	=136-
1FF/	-e	1.A\	-e	1F/	.
*	*	*	*	*Xlig	*
2r	.	.	.	1G/	me-
2C/	me-	2c\	me-	.	.
=137-	=137-	=137-	=137-	=137-	=137-
*lig	*	*	*	*lig	*
1GG/	-mo-	1B-\	-mo-	1G/	-mo-
1D\	.	2A/	.	1F/	.
.	.	1B-\	.	.	.
*Xlig	*	*	*	*Xlig	*
=138-	=138-	=138-	=138-	=138-	=138-
2.E-X\	.	.	.	1G/	-ri-
.	.	2G/	-ri-	.	.
4E-X\	-ri-	.	.	.	.
*	*	*	*	*lig	*
1D\	-am	0F/	-am	1B-\	-am
=139-	=139-	=139-	=139-	=139-	=139-
4FF/	fa-	.	.	1A\	.
4GG/	.	.	.	.	.
4AA/	.	.	.	.	.
4BB-/	.	.	.	.	.
*lig	*	*	*	*Xlig	*
*	*	*	*	*lig	*
1C/	.	2E/	fa-	1G/	fa-
.	.	2.G/	.	.	.
!!linebreak:original
=140-	=140-	=140-	=140-	=140-	=140-
1FF/	.	.	.	1A\	.
.	.	4F/	.	.	.
.	.	1F/	.	.	.
*Xlig	*	*	*	*Xlig	*
2.C/	.	.	.	1G/	-ci-
.	.	2E/	-ci-	.	.
4C/	-ci-	.	.	.	.
=141-	=141-	=141-	=141-	=141-	=141-
1FF/	-mus	1F/	-mus	1F/	-mus
1r	.	1B-\	fac	1G/	fac
=142-	=142-	=142-	=142-	=142-	=142-
1.D\	fa-	1.A\	e-	1F/	e-
*	*	*	*	*lig	*
.	.	.	.	1F/	-as
*custos:BB-	*	*	*	*	*
2D/	-ce-	2A/	-as	.	.
!LO:LB:g=original	!	!	!	!	!
=143-	=143-	=143-	=143-	=143-	=143-
*	*	*lig	*	*	*
1BB-/	-as	1B-\	Do-	1D/	.
*lig	*	*	*	*Xlig	*
*	*	*	*	*lig	*
1FF/	D-	1A\	.	1F/	Do-
*	*	*Xlig	*	*	*
=144-	=144-	=144-	=144-	=144-	=144-
1.C/	.	1.c\	.	1G/	.
.	.	.	.	1G/	-mi-
*	*	*	*	*custos:G	*
*Xlig	*	*	*	*Xlig	*
2C/	-mi-	2c\	-mi-	.	.
!	!	!	!	!LO:PB:g=original	!
=145-	=145-	=145-	=145-	=145-	=145-
!	!	!LO:N:acc=#	!	!	!
2GG/	-ne	2Bn\	-ne	1G/	-ne
2C/	de	2c\	de	.	.
2.BB-/	mor-	1.d\	mor-	1B-\	de
4C/	.	.	.	.	.
=146-	=146-	=146-	=146-	=146-	=146-
*	*	*	*	*lig	*
1D\	.	.	.	1A\	mor-
.	.	2c\	.	.	.
!	!	!LO:LB:g=original	!	!	!
1E-X\	.	1B-y\	.	1G/	.
*	*	*	*	*Xlig	*
=147-	=147-	=147-	=147-	=147-	=147-
1BB-/	-te	2B-\	-te	1F/	-te
.	.	2f\	tran-	.	.
*lig	*	*	*	*lig	*
1F\	tras-	2.f\	-ſi-	1A\	tran-
.	.	4e\	.	.	.
=148-	=148-	=148-	=148-	=148-	=148-
1G\	.	4d\	.	1B-\	.
.	.	4c\	.	.	.
.	.	2B-\	.	.	.
*Xlig	*	*	*	*Xlig	*
1F\	-ſi-	1A\	.	1c\	.
!!linebreak:original
=149-	=149-	=149-	=149-	=149-	=149-
*	*	*	*	*lig	*
2C/	-re	1G/	-re	1c\	-ſi-
2C/	ad	.	.	.	.
4GG/	vi-	1d\	ad	1B-\	.
4AA/	.	.	.	.	.
4BB-/	.	.	.	.	.
4C/	.	.	.	.	.
*	*	*	*	*Xlig	*
=150-	=150-	=150-	=150-	=150-	=150-
*	*	*	*	*lig	*
1D\	.	2.d\	Vi-	1A\	-re
.	.	4c\	.	.	.
1E-X\	.	4B-\	.	1G/	.
.	.	4A\	.	.	.
.	.	1G/	.	.	.
*	*	*	*	*Xlig	*
=151-	=151-	=151-	=151-	=151-	=151-
*	*	*	*	*lig	*
2.D/	.	.	.	1A\	ad
!	!	!LO:TX:t=P:problem=# below	!	!	!
.	.	2F#X/	.	.	.
4C/	.	.	.	.	.
2BB-/	.	2G/	-tam	1B-\	.
2GG/	.	2d\	ad	.	.
*	*	*	*	*Xlig	*
=152-	=152-	=152-	=152-	=152-	=152-
1D\	.	1d\	Vi-	1A\	Vi-
!	!	!LO:N:acc=#	!	!	!
!	!	!LO:TX:t=P:problem=# below	!	!	!
1.GG/	-tam	1Bn\	-tam	[>0G/	.
=153-	=153-	=153-	=153-	=153-	=153-
.	.	2r	.	.	ta-
*custos:C	*	*	*	*	*
2GG/	tran-	2d\	tran-	.	.
!LO:LB:g=original	!	!	!	!	!
1C/	-ſi-	1e-X\	-ſi-	0G/_>	.
=154-	=154-	=154-	=154-	=154-	=154-
2C/	-re	2e-y\	-re	.	.
!LO:N:acc=#	!	!	!	!	!
2BBn/	ad	2d\	ad	.	.
!	!	!	!	!LO:N:vis=0	!
1C/	vi-	1c\	Vi-	0.G/;]	.
=155-	=155-	=155-	=155-	=155-	=155-
!	!	!LO:TX:t=P:problem=# above	!	!	!
!	!	!LO:N:acc=#	!	!	!
0GG/;	-tam	0Bn\;<	-tam	.	.
=-	=-	=-	=-	=-	=-
*-	*-	*-	*-	*-	*-
!!!system-decoration: [(s1,s2,s3)]
!!!RDF**kern: > = above
!!!RDF**kern: < = below
!!!ENC: Anastazja Marusiak
!!!END: 2021-10-28
!!!ENC: Leszek Kubiak
!!!END: 2021-12-22
!!!YEC: Copyright 2022 Narodowy Instytut Fryderyka Chopina (https://polishscores.org)
!!!YEM: License CC-BY-4.0 (https://creativecommons.org/licenses/by/4.0)
